X:1
T:I Thought of You, Mother
T:I Thought of You, Mother
T:George W. Bacon
T:Lizzie DeArmond, 1913
T:Public Domain Courtesy of the Cyber Hymnal™
T:Public Domain Courtesy of the Cyber Hymnal™
C:George W. Bacon
Z:Public Domain
Z:Courtesy of the Cyber Hymnal™
%%score ( 1 2 ) ( 3 4 )
L:1/8
Q:1/4=110
M:6/4
K:C
V:1 treble 
V:2 treble 
V:3 bass 
V:4 bass 
V:1
 (CD) | [CE]3 [CE] [CE]2 [CF] [CE]3 [G,C]2 | [A,C]3 [A,C] [B,D]2 [CE]4 [EG]2 | %3
w: 1.~I *|thought of you, mo- ther, when|tempt- ed to stray, When|
w: 2.~I *|thought of you, mo- ther, tho’|long I have trod The|
w: 3.~I *|thought of you, mo- ther— no|more will I roam; The|
 [EG]3 [^D^F] [EG]2 [=FA] [EG]3 [Ec]2 | [Fc]3 [FB] [FA]2 !fermata![Gd]4 G2 | %5
w: far from my Sav- ior I|wan- dered a- way; In|
w: path- way that led me from|home and from God; Your|
w: an- gels are shout- ing, “A|sin- ner’s come home!” When|
 [Ge]2 [Gd]2 [Gc]2 [Fc] [FA]3 [Fc]2 | [DG]3 [EG] [FG]2 [EG]4 [CG]2 | %7
w: all the rough plac- es it|kept my life true, Be-|
w: trust ne- ver fail- ing, your|won- der- ful love, Are|
w: safe I am stand- ing at|Heav- en’s bright goal, I’ll|
 [CE]2 [EG]2 [Gc]2 [^FA] [Fd]3 [Fc]2 | [GB]2 [Gc]2 [Gd]2 !fermata![Gc]4 ||"^Refrain" [EG]2 | %10
w: cause of your mes- sage, “I’m|pray- ing for you!”||
w: guid- ing my foot- steps to|Je- sus a- bove.|I|
w: look for the mo- ther whose|faith saved my soul.||
 [EG]3 [EG] [EG]2 [EG] [EG]3 [EG]2 | [Ec]3 [Ec] [Ec]2 [Gd] [Gd]3 G2 | %12
w: ||
w: thought of you, mo- ther, I|thought of you, mo- ther, The|
w: ||
 [Ge]2 [Gd]2 [Gc]2 [Fc] [FA]3 [Fc]2 | [DG]2 [EG]2 [FG]2 [EG]4 [Ec]2 | %14
w: ||
w: love ne- ver fail- ing, that|fol- lowed your son; I|
w: ||
 [Ec]3 [EA] [Ec]2 [Ge] [Ec]3 [EG]2 | [Gc]3 [Gd] [Ge]2 [Af] [FA]3 [FA]2 | %16
w: ||
w: thought of you, mo- ther, I|thought of you, mo- ther, My|
w: ||
 [DG]3 [EA] [FB]2 [Ec]2 !fermata![Ge]2 [^Fd]2 | [Fd]2 [EA]2 [FB]2 !fermata![Ec]4 |] %18
w: ||
w: soul for the Sav- ior your|pure life has won.|
w: ||
V:2
 C2 | x12 | x12 | x12 | x10 G2 | x12 | x12 | x12 | x10 || x2 | x12 | x10 G2 | x12 | x12 | x12 | %15
 x12 | x12 | x10 |] %18
V:3
 (E,F,) | [C,G,]3 [C,G,] [C,G,]2 [C,A,] [C,G,]3 [C,E,]2 | %2
 [A,,E,]3 [A,,E,] [G,,G,]2 [C,G,]4 [C,C]2 | [C,C]3 [C,C] [C,C]2 [C,C] [C,C]3 [A,C]2 | %4
 [D,A,]3 [D,D] [D,C]2 !fermata![G,B,]4 [G,B,]2 | [C,C]2 [D,B,]2 [E,C]2 [F,A,] [F,C]3 [F,A,]2 | %6
 [G,B,]3 [G,C] [G,D]2 [C,C]4 [C,E,]2 | [C,G,]2 [C,C]2 [C,E]2 [D,D] [D,A,]3 [D,D]2 | %8
 [G,D]2 [G,E]2 [G,F]2 [C,E]4 || [C,C]2 | [C,C]3 [C,C] [C,C]2 [E,B,] [E,B,]3 [G,B,]2 | %11
 [A,C]3 [A,C] [A,C]2 [G,B,] [G,B,]3 [G,B,]2 | [C,C]2 [D,B,]2 [E,C]2 [F,A,] [F,C]3 [F,A,]2 | %13
 [G,B,]2 [G,C]2 [G,D]2 [C,C]4 [C,G,]2 | [C,G,]3 [C,A,] [C,G,]2 [C,C] [C,G,]3 [C,C]2 | %15
 [E,C]3 [D,B,] [C,C]2 [F,C] [F,C]3 [F,C]2 | [G,B,]3 [G,C] [G,D]2 [A,C]2 !fermata![A,C]2 [D,A,]2 | %17
 [G,B,]2 [G,C]2 [G,D]2 !fermata![C,C]4 |] %18
V:4
 C,2 | x12 | x12 | x12 | x12 | x12 | x12 | x12 | x10 || x2 | x12 | x12 | x12 | x12 | x12 | x12 | %16
 x12 | x10 |] %18

